X:1
T: The Earl of Marches
C:Alexander Walker
R:Reel
Q: 232
K:D
M:4/4
L:1/8
c|d2 de dA FA|Bc dB AF ED|G2 GA Bc dB|AF ED E2 Ec|
d2 de dA FA|Bc dB AF ED|GF GA Bc dB|AG FE D2 Dc|
d2 de dA FA|Bc dB AF ED|G2 GA Bc dB|AF ED E2 Ec|
d2 de dA FA|Bc dB AF ED|GA BG FA df|eg ec d2 df|
a2 ab af ef|gb fa ef dA|Bc dB AF ED|AB df e2 ef|
a2 ab af df|ga fa ef dA|GF GA Bc dB|AG FE D2 Df|
a2 ab af ef|gb fa ef dA|Bc dB AF ED|AB df e2 ef|
a2 ab af df|ga fa ef dA|GF GA Bc dB|AG FE D3||
